img/electrical.svg

<svg width="48" height="48" viewBox="0 0 48 48" fill="none" xmlns="http://www.w3.org/2000/svg">
<g clip-path="url(#clip0)">
<path d="M1.033 25.747C-2.602 12.625 3.686 0 14.705 0C20.802 0 23.405 3.504 30.102 11.663C36.8 19.822 46.35 8.478 48 25.747C46.614 41.66 29.348 56.064 21.332 42.774C14.034 30.674 4.667 38.868 1.032 25.747H1.033Z" fill="#E6F1F9"/>
<path d="M12 12V20H14V19H20C20.2652 19 20.5196 19.1054 20.7071 19.2929C20.8946 19.4804 21 19.7348 21 20V30C21 32.75 23.25 35 26 35H34V36H36V28H34V29H28C27.7348 29 27.4804 28.8946 27.2929 28.7071C27.1054 28.5196 27 28.2652 27 28V18C27 15.25 24.75 13 22 13H14V12H12ZM14 15H22C23.669 15 25 16.331 25 18V23H23V19C23 17.907 22.093 17 21 17H14V15ZM23 25H25V29C25 30.093 25.907 31 27 31H34V33H26C24.331 33 23 31.669 23 30V25Z" fill="#036FC7"/>
<path d="M20 23H28V26H20V23Z" fill="#036FC7"/>
</g>
<defs>
<clipPath id="clip0">
<rect width="48" height="48" fill="white"/>
</clipPath>
</defs>
</svg>

<svg width="48" height="48" fill="none" xmlns="http://www.w3.org/2000/svg"><g clip-path="url(#clip0)"><path d="M1.033 25.747C-2.602 12.625 3.686 0 14.705 0c6.097 0 8.7 3.504 15.397 11.663C36.8 19.822 46.35 8.478 48 25.747 46.614 41.66 29.348 56.064 21.332 42.774c-7.298-12.1-16.665-3.906-20.3-17.027h.001z" fill="#E6F1F9"/><path d="M12 12v8h2v-1h6a1 1 0 011 1v10c0 2.75 2.25 5 5 5h8v1h2v-8h-2v1h-6a1 1 0 01-1-1V18c0-2.75-2.25-5-5-5h-8v-1h-2zm2 3h8c1.669 0 3 1.331 3 3v5h-2v-4c0-1.093-.907-2-2-2h-7v-2zm9 10h2v4c0 1.093.907 2 2 2h7v2h-8c-1.669 0-3-1.331-3-3v-5z" fill="#036FC7"/><path d="M20 23h8v3h-8v-3z" fill="#036FC7"/></g><defs><clipPath id="clip0"><path fill="#fff" d="M0 0h48v48H0z"/></clipPath></defs></svg>
